X: 24685
T: MacLeod's Farewell
R: reel
M: 4/4
K: Dmajor
DE|EFBF AFEF|D/D/D DE FABd|eefd efed|ABeB dBAG|
EF2 B AFEF|D/D/D DE FABd|eefd efdB|ABde dDDE|
FDBF AFEF|E/E/D DE FABd|eefd efed|B4 dBAG|
EF2 B AFEF|D/D/D DE FABd|eefd efdB|ABde dABd||
A3f edfd|B/B/A Af edfd|ABdA BdAB|dBAF EDB,D|
EFBF AFEF|E/E/D DE FABd|eefd efdB|ABde d~B3|
A3f edfd|B/B/A Af edfd|ABdA BdAB|dBAF EDB,D|
EFBF AFEF|E/E/D DE FABd|eefd efdB|ABde dDDE||

